X:1
T:Title
%%score { 1 | ( 2 3 ) }
L:1/8
M:4/4
K:Ab
V:1 treble nm="Grand Piano"
V:2 treble 
V:3 treble 
V:1
 z4 z2[Q:1/4=100] E[EA] | [EAc]3 A d3 c | [DFB]2 F4 [B,EG][EA] | [DEB]3 E d3 c |[M:3/4] B6 | %5
[M:1/4] EA |[M:4/4] c3 A d3 c | [FB]2 [DF]4 [A,_CG][CF] | [A,CE]3 [EA] [Ac]3 [GB] |[M:3/4] [CA]6 | %10
 EA c3 A | Bc [Fd] [Fd]3 | [Fd][Fc] [GB]3 E |[M:2/4] [EA]B c2- |[M:1/4] c2 | cd |[M:3/4] e3 c Bc | %17
 [Fd] [Fd]3 [EFc]>[DFB] | A3 c B>G |[M:2/4] [CA]4 |] %20
V:2
 z4 z2 CC | z2 z C [FA]3 [EA] | z2 D4 z C | z2 z C [B,E]3 [A,E] |[M:3/4] [E,G,E]6 | %5
[M:1/4] [A,C][K:treble][A,C] |[M:4/4] [A,E]3 [A,_G] [A,F]3 [A,E] | A,2 A,4 z A, | z2 z C E3 D | %9
[M:3/4] A,,6 | [A,C][A,C] [A,E]3 [A,C] | [A,D][A,E] [D,A,] [D,A,]3 | [D,A,][D,A,] [E,D]3 [D,B,] | %13
[M:2/4] [C,A,][E,G,E][K:treble] [A,E]2- |[M:1/4] [A,E]2 | [A,E][A,B,E] | %16
[M:3/4] [A,CE]3 [A,EA] [A,EG][A,_G] | [D,A,] [D,A,]3 D,>D, | [E,CE]3 [E,A,E] [E,G,E]>[E,B,D] | %19
[M:2/4] [A,,A,]4 |] %20
V:3
 x8 | A,8 | [D,A,]6 E,2 | E,8 |[M:3/4] x6 |[M:1/4] x[K:treble] x |[M:4/4] x8 | D,6 =D,2 | E,8 | %9
[M:3/4] x6 | x6 | x6 | x6 |[M:2/4] x2[K:treble] x2 |[M:1/4] x2 | x2 |[M:3/4] x6 | x6 | x6 | %19
[M:2/4] x4 |] %20

